X:1
T:[ID 1-114b]
T:[ID 1-114b]
T:Bezeichnung standardisiert: Boure Boure In dieser Quelle auch als: Courant In dieser Quelle auch als: Tantz
T:Urheber unbekannt Datum in der hier transkribierten schriftlichen Quelle: vermutlich vor 1767
C:Urheber unbekannt
C:Datum in der hier transkribierten schriftlichen Quelle: vermutlich vor 1767
L:1/8
M:none
K:D
V:1 treble 
V:1
 f4 e4 | d2 cB A2 G2 | F2 a2 E2 g2 | f4 e4 | F2 a2 E2 g2 | f4 e4 | f2 ed cdec |"^[sic]" d6 x2 :: %8
 f2 g2 a2 b2 | e2 f2 g2 a2 | f2 g2 a2 b2 | e4 A4 | f2 g2 a2 b2 | e2 f2 g2 a2 | f2 ed cdec | %15
"^[sic]" d6 x2 :| %16

